assets/sonr-icons/qr-code.svg

<svg xmlns="http://www.w3.org/2000/svg" width="24" height="24" fill="none" viewBox="0 0 24 24"><path stroke="#000" stroke-linecap="round" stroke-linejoin="round" stroke-width="1.92" d="M6.72001 6.71997H6.73001M17.28 6.71997H17.29M6.72001 17.28H6.73001M12.96 12.96H12.97M17.28 17.28H17.29M16.8 20.64H20.64V16.8M13.92 16.32V20.64M20.64 13.92H16.32M15.456 10.08H19.104C19.642 10.08 19.91 10.08 20.116 9.97497C20.297 9.88297 20.443 9.73597 20.536 9.55497C20.641 9.34997 20.641 9.08097 20.641 8.54297V4.89497C20.641 4.35697 20.641 4.08897 20.536 3.88297C20.444 3.70197 20.297 3.55597 20.116 3.46297C19.911 3.35797 19.642 3.35797 19.104 3.35797H15.456C14.918 3.35797 14.65 3.35797 14.444 3.46297C14.263 3.55497 14.117 3.70197 14.024 3.88297C13.919 4.08797 13.919 4.35697 13.919 4.89497V8.54297C13.919 9.08097 13.919 9.34897 14.024 9.55497C14.116 9.73597 14.263 9.88197 14.444 9.97497C14.649 10.08 14.918 10.08 15.456 10.08ZM4.89601 10.08H8.54401C9.08201 10.08 9.35001 10.08 9.55601 9.97497C9.73701 9.88297 9.88301 9.73597 9.97601 9.55497C10.081 9.34997 10.081 9.08097 10.081 8.54297V4.89497C10.081 4.35697 10.081 4.08897 9.97601 3.88297C9.88401 3.70197 9.73701 3.55597 9.55601 3.46297C9.35101 3.35797 9.08201 3.35797 8.54401 3.35797H4.89601C4.35801 3.35797 4.09001 3.35797 3.88401 3.46297C3.70301 3.55497 3.55701 3.70197 3.46401 3.88297C3.35901 4.08797 3.35901 4.35697 3.35901 4.89497V8.54297C3.35901 9.08097 3.35901 9.34897 3.46401 9.55497C3.55601 9.73597 3.70301 9.88197 3.88401 9.97497C4.08901 10.08 4.35801 10.08 4.89601 10.08ZM4.89601 20.64H8.54401C9.08201 20.64 9.35001 20.64 9.55601 20.535C9.73701 20.443 9.88301 20.296 9.97601 20.115C10.081 19.91 10.081 19.641 10.081 19.103V15.455C10.081 14.917 10.081 14.649 9.97601 14.443C9.88401 14.262 9.73701 14.116 9.55601 14.023C9.35101 13.918 9.08201 13.918 8.54401 13.918H4.89601C4.35801 13.918 4.09001 13.918 3.88401 14.023C3.70301 14.115 3.55701 14.262 3.46401 14.443C3.35901 14.648 3.35901 14.917 3.35901 15.455V19.103C3.35901 19.641 3.35901 19.909 3.46401 20.115C3.55601 20.296 3.70301 20.442 3.88401 20.535C4.08901 20.64 4.35801 20.64 4.89601 20.64Z"/></svg>

<svg xmlns="http://www.w3.org/2000/svg" width="24" height="24" fill="none"><path stroke="#000" stroke-linecap="round" stroke-linejoin="round" stroke-width="1.92" d="M6.72 6.72h.01m10.55 0h.01M6.72 17.28h.01m6.23-4.32h.01m4.31 4.32h.01m-.49 3.36h3.84V16.8m-6.72-.48v4.32m6.72-6.72h-4.32m-.864-3.84h3.648c.538 0 .806 0 1.012-.105a.96.96 0 0 0 .42-.42c.105-.205.105-.474.105-1.012V4.895c0-.538 0-.806-.105-1.012a.96.96 0 0 0-.42-.42c-.205-.105-.474-.105-1.012-.105h-3.648c-.538 0-.806 0-1.012.105a.96.96 0 0 0-.42.42c-.105.205-.105.474-.105 1.012v3.648c0 .538 0 .806.105 1.012a.96.96 0 0 0 .42.42c.205.105.474.105 1.012.105m-10.56 0h3.648c.538 0 .806 0 1.012-.105a.96.96 0 0 0 .42-.42c.105-.205.105-.474.105-1.012V4.895c0-.538 0-.806-.105-1.012a.96.96 0 0 0-.42-.42c-.205-.105-.474-.105-1.012-.105H4.896c-.538 0-.806 0-1.012.105a.96.96 0 0 0-.42.42c-.105.205-.105.474-.105 1.012v3.648c0 .538 0 .806.105 1.012a.96.96 0 0 0 .42.42c.205.105.474.105 1.012.105m0 10.56h3.648c.538 0 .806 0 1.012-.105a.96.96 0 0 0 .42-.42c.105-.205.105-.474.105-1.012v-3.648c0-.538 0-.806-.105-1.012a.96.96 0 0 0-.42-.42c-.205-.105-.474-.105-1.012-.105H4.896c-.538 0-.806 0-1.012.105a.96.96 0 0 0-.42.42c-.105.205-.105.474-.105 1.012v3.648c0 .538 0 .806.105 1.012a.96.96 0 0 0 .42.42c.205.105.474.105 1.012.105"/></svg>
